dist/img/sprites/company-insurance-8.svg

<svg width="596" height="101" viewBox="0 0 596 101" xmlns="http://www.w3.org/2000/svg">
<path d="M0.136719 2.1543C5.90984 3.52318 14.4207 0.464022 17.4442 7.26083C27.6811 26.6752 34.9302 47.5656 43.941 67.6346C53.7018 47.7917 60.689 26.6514 70.9973 7.09418C74.3065 0.0593085 83.5196 3.78506 89.507 2.45188C84.7457 22.3305 74.0327 39.995 65.867 58.5404C59.0702 72.4674 53.9636 87.3465 44.8933 100.012C38.5607 94.8813 35.573 87.1085 32.1924 79.9665C21.8445 56.9533 11.1592 34.1148 0.136719 11.4508V2.1543Z" />
<path d="M99.3521 3.8805C103.697 0.857047 111.708 1.45222 113.041 7.29676C115.826 27.2468 111.458 47.7681 115.326 67.5634C120.29 86.3945 150.584 87.3706 157.202 69.2894C162.166 49.2679 157.381 28.33 159.94 8.03476C160.892 -1.15462 176.938 0.892758 175.95 9.99882C176.652 27.7348 176.486 45.5422 175.95 63.3139C175.843 76.7885 167.975 90.3345 154.988 95.1791C135.598 103.262 107.661 97.7741 99.602 76.3481C94.1741 59.7191 97.5666 41.8403 96.5548 24.7113C97.2452 17.8907 94.8883 9.76075 99.3521 3.8805Z" />
<path d="M215.076 0.67861C221.192 -0.493973 227.504 -0.115891 233.436 1.77834C239.368 3.67256 244.731 7.02259 249.036 11.5226C255.476 18.486 244.525 29.3776 237.704 22.8069C230.491 17.1171 216.695 11.832 213.314 24.3186C218.635 36.7815 236.538 37.2695 246.394 45.9589C262.82 54.7912 262.511 79.7049 248.608 90.6798C230.062 105.595 197.733 99.1907 187.353 77.3838C184.639 70.8012 191.329 65.9804 197.209 65.6352C206.601 69.3966 210.886 81.6094 221.873 82.2403C231.55 84.4662 243.477 73.7532 238.787 64.0163C228.205 49.6609 205.16 52.113 196.399 35.7221C188.793 21.3785 199.387 2.92834 215.076 0.67861Z" />
<path d="M275.032 21.0214C290.578 -2.42816 326.752 -7.12998 347.833 11.4868C361.272 21.8666 366.2 39.174 366.2 55.5292C361.022 53.2795 355.915 50.7679 350.892 48.1491C345.785 36.4958 340.441 22.5331 327.085 18.236C309.099 10.7726 287.388 23.7235 283.912 42.5189C278.674 63.4449 298.672 85.7161 320.134 82.0856C331.608 81.2047 339.238 71.9201 346.321 63.9687C351.097 66.4523 355.996 68.693 360.998 70.6822C348.904 95.6435 315.575 106.583 291.494 92.3344C266.45 79.3835 258.105 43.6378 275.032 21.0214Z" />
<path d="M312.254 57.2552C321.372 45.0066 337.31 42.8997 350.892 48.1134C355.915 50.7083 361.022 53.2437 366.2 55.4935C379.139 62.1831 390.649 51.5177 400.005 43.8877C401.374 64.6828 378.472 74.3603 360.986 70.694C355.984 68.7049 351.085 66.4642 346.309 63.9805C336.287 56.7671 324.252 55.2554 312.254 57.2552Z" />
<path d="M416.277 27.104C416.277 19.6882 421.515 15.4268 427.466 15.4268C429.883 15.4006 432.219 16.2942 434.001 17.9265L431.454 21.319C430.468 20.3231 429.141 19.7399 427.74 19.6882C424.169 19.6882 421.634 22.6641 421.634 27.1278C421.634 31.5916 424.098 34.5317 427.586 34.5317C429.311 34.4427 430.952 33.7569 432.228 32.5915L434.347 36.0315C432.33 37.8041 429.735 38.7779 427.05 38.7693C420.955 38.7693 416.277 34.4722 416.277 27.104Z" />
<path d="M443.214 20.1045H436.191V15.9502H455.487V20.1045H448.464V38.2333H443.214V20.1045Z" />
<path d="M460.012 15.9505H464.368L464.773 18.3312H464.916C466.74 16.6222 469.1 15.5962 471.594 15.4268C477.188 15.4268 480.39 19.8905 480.39 26.7706C480.39 34.3888 475.819 38.793 470.868 38.793C468.72 38.6984 466.678 37.8319 465.118 36.3528L465.285 40.0548V47.0778H460.036L460.012 15.9505ZM474.998 26.7945C474.998 22.3545 473.546 19.7239 470.13 19.7239C468.511 19.7239 466.987 20.5333 465.261 22.2236V32.6033C466.482 33.7406 468.07 34.4036 469.737 34.4721C472.701 34.4721 474.998 31.8415 474.998 26.7945Z" />
<path d="M483.936 32.2462C483.936 27.4848 487.912 24.9851 497.089 24.0091C497.018 21.6284 496.054 19.6167 493.03 19.6167C490.774 19.7564 488.6 20.5141 486.745 21.807L484.817 18.3193C487.545 16.5158 490.725 15.5137 493.995 15.4268C499.577 15.4268 502.327 18.8549 502.327 25.0566V38.2336H498.03L497.696 35.7577H497.554C495.662 37.576 493.175 38.6461 490.554 38.7692C489.68 38.8219 488.804 38.69 487.983 38.3821C487.163 38.0742 486.416 37.5972 485.792 36.9821C485.168 36.3669 484.68 35.6274 484.361 34.8115C484.041 33.9956 483.896 33.1216 483.936 32.2462ZM497.089 32.2462V27.2468C491.019 28.0086 489.007 29.6274 489.007 31.8415C489.007 33.8055 490.352 34.6745 492.221 34.6745C494.09 34.6745 495.435 33.7817 497.089 32.2581V32.2462Z" />
<path d="M513.028 26.6158L506.41 15.9028H512.064L514.54 20.188C515.183 21.3784 515.897 22.7115 516.575 23.9376H516.742C517.313 22.7473 517.932 21.426 518.516 20.188L520.623 15.9623H526.074L519.456 27.211L526.538 38.2454H520.908L518.182 33.8293C517.444 32.5318 516.694 31.1629 515.921 29.8893H515.742C515.076 31.1629 514.421 32.4961 513.754 33.8293L511.374 38.2454H505.922L513.028 26.6158Z" />
<path d="M528.062 27.1038C528.062 19.688 533.121 15.4028 538.692 15.4028C544.263 15.4028 549.322 19.688 549.322 27.1038C549.322 34.5196 544.263 38.7691 538.692 38.7691C533.121 38.7691 528.062 34.472 528.062 27.1038ZM543.942 27.1038C543.942 22.6401 541.966 19.6642 538.692 19.6642C535.419 19.6642 533.407 22.6401 533.407 27.1038C533.407 31.5676 535.419 34.472 538.692 34.472C541.966 34.472 543.942 31.5676 543.942 27.1038Z" />
<path d="M554.535 15.9502H563.594C568.545 15.9502 572.235 17.4619 572.235 21.7114C572.245 22.8032 571.878 23.8649 571.198 24.7188C570.517 25.5726 569.564 26.1666 568.498 26.4013V26.5561C571.14 27.1989 573.116 28.7344 573.116 31.8412C573.116 36.3406 569.176 38.2333 564.058 38.2333H554.535V15.9502ZM563.058 24.9491C566.01 24.9491 567.165 23.9135 567.165 22.2352C567.165 20.5568 565.974 19.4974 563.213 19.4974H559.642V24.9491H563.058ZM563.653 34.6623C566.665 34.6623 568.01 33.4719 568.01 31.4841C568.01 29.7105 566.546 28.5082 563.51 28.5082H559.665V34.6623H563.653Z" />
<path d="M576.913 32.2462C576.913 27.4848 580.877 24.9851 590.006 24.0091C589.935 21.6284 588.971 19.6167 585.947 19.6167C583.695 19.7579 581.525 20.5156 579.674 21.807L577.734 18.3193C580.481 16.5087 583.682 15.5064 586.971 15.4268C592.566 15.4268 595.303 18.8549 595.303 25.0566V38.2336H591.006L590.602 35.7577H590.459C588.586 37.5674 586.12 38.6373 583.519 38.7692C582.645 38.8201 581.771 38.6869 580.952 38.3783C580.133 38.0696 579.388 37.5923 578.765 36.9774C578.142 36.3624 577.655 35.6235 577.336 34.8085C577.017 33.9935 576.873 33.1205 576.913 32.2462ZM590.006 32.2462V27.2468C583.948 28.0086 581.924 29.6274 581.924 31.8415C581.924 33.8055 583.269 34.6745 585.15 34.6745C587.031 34.6745 588.399 33.7817 590.054 32.2581L590.006 32.2462Z" />
<path d="M417.67 54.1008H422.788V62.7664H428.657L437.239 76.3838H431.621L426.098 66.9326H422.836V76.3838H417.718L417.67 54.1008ZM425.074 64.8138L428.002 58.2788C429.716 54.4341 431.573 53.5175 434.335 53.5175C434.856 53.5099 435.375 53.6071 435.858 53.8032L435.025 58.6478C434.773 58.5563 434.507 58.508 434.239 58.505C433.144 58.505 432.263 58.874 431.299 61.1594L429.359 65.6708L425.074 64.8138Z" />
<path d="M438.441 65.2542C438.441 57.8384 443.369 53.5532 448.809 53.5532C454.249 53.5532 459.177 57.8384 459.177 65.2542C459.177 72.67 454.249 76.9314 448.809 76.9314C443.369 76.9314 438.441 72.6462 438.441 65.2542ZM453.916 65.2542C453.916 60.7905 451.999 57.8146 448.797 57.8146C445.595 57.8146 443.679 60.7905 443.679 65.2542C443.679 69.718 445.607 72.6581 448.797 72.6581C451.987 72.6581 453.928 69.718 453.928 65.2542H453.916Z" />
<path d="M464.26 54.1006H470.116L473.616 63.0995C474.223 64.9326 474.806 66.6705 475.354 68.3013H475.532C476.115 66.6229 476.723 64.9326 477.306 63.0995L480.639 54.1006H486.471V76.3836H481.889V68.5751C481.889 66.3967 482.246 62.3139 482.448 59.9094H482.222C481.591 61.7782 480.758 63.897 480.139 65.6706L476.842 74.372H473.89L470.497 65.6706C469.878 63.897 469.045 61.7187 468.426 59.9094H468.247C468.438 62.2901 468.795 66.3967 468.795 68.5751V76.3836H464.272L464.26 54.1006Z" />
<path d="M492.995 54.1006H511.516V76.3836H506.398V58.2787H498.066V76.3836H492.959L492.995 54.1006Z" />
<path d="M516.86 70.3965C516.86 65.6352 520.729 63.1355 529.68 62.1594C529.609 59.7787 528.668 57.7671 525.728 57.7671C523.521 57.9134 521.398 58.6718 519.598 59.9573L517.717 56.4696C520.358 54.6514 523.464 53.627 526.669 53.5176C532.12 53.5176 534.799 56.9457 534.799 63.1474V76.3839H530.609L530.216 73.908H530.073C528.267 75.7111 525.86 76.7871 523.312 76.9315C522.447 76.9713 521.583 76.8289 520.777 76.5135C519.971 76.1981 519.239 75.7166 518.631 75.1004C518.023 74.4843 517.551 73.7471 517.246 72.9367C516.941 72.1263 516.809 71.2609 516.86 70.3965ZM529.68 70.3965V65.4209C523.729 66.1708 521.8 67.8016 521.8 70.0037C521.8 71.9797 523.11 72.8367 524.943 72.8367C526.776 72.8367 528.061 71.9321 529.68 70.4084V70.3965Z" />
<path d="M540.953 54.1006H546.06V62.6234H554.749V54.1006H559.868V76.3836H554.749V67.2181H546.06V76.3836H540.953V54.1006Z" />
<path d="M565.76 47.2442C565.715 46.6074 565.862 45.9717 566.183 45.4199C566.504 44.8681 566.984 44.4257 567.56 44.1505C568.136 43.8752 568.781 43.7798 569.412 43.8766C570.043 43.9735 570.631 44.2581 571.097 44.6934C571.564 45.1288 571.889 45.6946 572.03 46.3173C572.171 46.94 572.121 47.5906 571.887 48.1845C571.652 48.7783 571.245 49.2879 570.717 49.6467C570.189 50.0055 569.565 50.197 568.926 50.1962C568.521 50.2257 568.114 50.1712 567.731 50.0361C567.347 49.901 566.996 49.6883 566.699 49.4112C566.402 49.134 566.165 48.7985 566.003 48.4257C565.842 48.0528 565.759 47.6506 565.76 47.2442ZM566.355 54.1005H571.497V76.3836H566.391L566.355 54.1005Z" />
<path d="M583.235 65.623L587.449 67.0871L581.497 76.3836H575.771L583.235 65.623ZM589.889 68.3727H586.675C582.354 68.3727 577.628 66.3491 577.628 61.0997C577.628 55.8504 581.497 54.1006 586.461 54.1006H594.995V76.3836H589.889V68.3727ZM589.889 64.8017V58.0049H587.175C584.318 58.0049 582.699 59.0286 582.699 61.2426C582.699 63.4566 584.318 64.7422 587.175 64.7422L589.889 64.8017Z" />
</svg>

<svg width="596" height="101" viewBox="0 0 596 101" xmlns="http://www.w3.org/2000/svg"><path d="M.137 2.154C5.91 3.524 14.42.464 17.444 7.261 27.681 26.675 34.93 47.566 43.941 67.635c9.76-19.843 16.748-40.984 27.056-60.54 3.31-7.036 12.523-3.31 18.51-4.643-4.761 19.879-15.474 37.543-23.64 56.088-6.797 13.927-11.903 28.807-20.974 41.472-6.332-5.13-9.32-12.903-12.7-20.046A2513.098 2513.098 0 00.136 11.451V2.154zM99.352 3.88c4.345-3.023 12.356-2.428 13.689 3.417 2.785 19.95-1.583 40.471 2.285 60.266 4.964 18.831 35.258 19.808 41.876 1.726 4.964-20.021.179-40.959 2.738-61.254.952-9.19 16.998-7.142 16.01 1.964.702 17.736.536 35.543 0 53.315-.107 13.474-7.975 27.02-20.962 31.865-19.39 8.083-47.327 2.595-55.386-18.83-5.428-16.63-2.035-34.509-3.047-51.638.69-6.82-1.667-14.95 2.797-20.83zM215.076.679a37.28 37.28 0 0133.96 10.844c6.44 6.963-4.511 17.855-11.332 11.284-7.213-5.69-21.009-10.975-24.39 1.512 5.321 12.463 23.224 12.95 33.08 21.64 16.426 8.832 16.117 33.746 2.214 44.72-18.546 14.916-50.875 8.512-61.255-13.295-2.714-6.583 3.976-11.404 9.856-11.749 9.392 3.762 13.677 15.974 24.664 16.605 9.677 2.226 21.604-8.487 16.914-18.224-10.582-14.355-33.627-11.903-42.388-28.294-7.606-14.344 2.988-32.794 18.677-35.043zm59.956 20.342c15.546-23.45 51.72-28.151 72.801-9.534 13.439 10.38 18.367 27.687 18.367 44.042-5.178-2.25-10.285-4.761-15.308-7.38-5.107-11.653-10.451-25.616-23.807-29.913-17.986-7.463-39.697 5.488-43.173 24.283-5.238 20.926 14.76 43.197 36.222 39.567 11.474-.881 19.104-10.166 26.187-18.117a159.829 159.829 0 0014.677 6.713c-12.094 24.962-45.423 35.901-69.504 21.652-25.044-12.95-33.389-48.696-16.462-71.313z"/><path d="M312.254 57.255c9.118-12.248 25.056-14.355 38.638-9.142 5.023 2.595 10.13 5.13 15.308 7.38 12.939 6.69 24.449-3.975 33.805-11.605 1.369 20.795-21.533 30.472-39.019 26.806a159.775 159.775 0 01-14.677-6.714c-10.022-7.213-22.057-8.725-34.055-6.725zm104.023-30.151c0-7.416 5.238-11.677 11.189-11.677a9.522 9.522 0 016.535 2.5l-2.547 3.392a5.511 5.511 0 00-3.714-1.63c-3.571 0-6.106 2.975-6.106 7.439s2.464 7.404 5.952 7.404a7.453 7.453 0 004.642-1.94l2.119 3.44a11 11 0 01-7.297 2.737c-6.095 0-10.773-4.297-10.773-11.665zm26.937-6.999h-7.023V15.95h19.296v4.155h-7.023v18.128h-5.25V20.105zm16.798-4.155h4.356l.405 2.381h.143a10.843 10.843 0 016.678-2.904c5.594 0 8.796 4.463 8.796 11.344 0 7.618-4.571 12.022-9.522 12.022a8.928 8.928 0 01-5.75-2.44l.167 3.702v7.023h-5.249l-.024-31.128zm14.986 10.845c0-4.44-1.452-7.071-4.868-7.071-1.619 0-3.143.81-4.869 2.5v10.38a6.989 6.989 0 004.476 1.868c2.964 0 5.261-2.63 5.261-7.678zm8.938 5.451c0-4.761 3.976-7.26 13.153-8.237-.071-2.38-1.035-4.392-4.059-4.392-2.256.14-4.43.897-6.285 2.19l-1.928-3.488a17.485 17.485 0 019.178-2.892c5.582 0 8.332 3.428 8.332 9.63v13.177h-4.297l-.334-2.476h-.142a10.836 10.836 0 01-7 3.011 6.25 6.25 0 01-6.618-6.523zm13.153 0v-5c-6.07.763-8.082 2.381-8.082 4.596 0 1.964 1.345 2.833 3.214 2.833s3.214-.893 4.868-2.417v-.012zm15.939-5.63l-6.618-10.713h5.654l2.476 4.285c.643 1.19 1.357 2.524 2.035 3.75h.167c.571-1.19 1.19-2.512 1.774-3.75l2.107-4.226h5.451l-6.618 11.249 7.082 11.034h-5.63l-2.726-4.416c-.738-1.297-1.488-2.666-2.261-3.94h-.179c-.666 1.274-1.321 2.607-1.988 3.94l-2.38 4.416h-5.452l7.106-11.63zm15.034.488c0-7.416 5.059-11.701 10.63-11.701 5.571 0 10.63 4.285 10.63 11.7 0 7.417-5.059 11.666-10.63 11.666-5.571 0-10.63-4.297-10.63-11.665zm15.88 0c0-4.464-1.976-7.44-5.25-7.44-3.273 0-5.285 2.976-5.285 7.44s2.012 7.368 5.285 7.368c3.274 0 5.25-2.904 5.25-7.368zm10.593-11.154h9.059c4.951 0 8.641 1.512 8.641 5.761a4.759 4.759 0 01-3.737 4.69v.155c2.642.643 4.618 2.178 4.618 5.285 0 4.5-3.94 6.392-9.058 6.392h-9.523V15.95zm8.523 9c2.952 0 4.107-1.037 4.107-2.715s-1.191-2.738-3.952-2.738h-3.571v5.452h3.416zm.595 9.712c3.012 0 4.357-1.19 4.357-3.178 0-1.774-1.464-2.976-4.5-2.976h-3.845v6.154h3.988zm13.26-2.416c0-4.761 3.964-7.26 13.093-8.237-.071-2.38-1.035-4.392-4.059-4.392a12.31 12.31 0 00-6.273 2.19l-1.94-3.488a17.557 17.557 0 019.237-2.892c5.595 0 8.332 3.428 8.332 9.63v13.177h-4.297l-.404-2.476h-.143a10.774 10.774 0 01-6.94 3.011 6.248 6.248 0 01-6.606-6.523zm13.093 0v-5c-6.058.763-8.082 2.381-8.082 4.596 0 1.964 1.345 2.833 3.226 2.833s3.249-.893 4.904-2.417l-.048-.012zM417.67 54.1h5.118v8.666h5.869l8.582 13.618h-5.618l-5.523-9.451h-3.262v9.45h-5.118l-.048-22.282zm7.404 10.714l2.928-6.535c1.714-3.845 3.571-4.762 6.333-4.762.521-.007 1.04.09 1.523.286l-.833 4.845a2.382 2.382 0 00-.786-.143c-1.095 0-1.976.369-2.94 2.654l-1.94 4.512-4.285-.857zm13.367.44c0-7.416 4.928-11.7 10.368-11.7s10.368 4.284 10.368 11.7c0 7.416-4.928 11.677-10.368 11.677s-10.368-4.285-10.368-11.677zm15.475 0c0-4.464-1.917-7.44-5.119-7.44s-5.118 2.977-5.118 7.44c0 4.464 1.928 7.404 5.118 7.404 3.19 0 5.131-2.94 5.131-7.404h-.012zM464.26 54.1h5.856l3.5 9c.607 1.833 1.19 3.57 1.738 5.201h.178c.583-1.678 1.191-3.368 1.774-5.202l3.333-8.998h5.832v22.283h-4.582v-7.809c0-2.178.357-6.261.559-8.666h-.226c-.631 1.87-1.464 3.988-2.083 5.762l-3.297 8.701h-2.952l-3.393-8.701c-.619-1.774-1.452-3.952-2.071-5.762h-.179c.191 2.381.548 6.488.548 8.666v7.809h-4.523L464.26 54.1zm28.735 0h18.521v22.284h-5.118V58.279h-8.332v18.105h-5.107l.036-22.283zm23.865 16.297c0-4.762 3.869-7.262 12.82-8.238-.071-2.38-1.012-4.392-3.952-4.392-2.207.146-4.33.905-6.13 2.19l-1.881-3.487a16.796 16.796 0 018.952-2.952c5.451 0 8.13 3.428 8.13 9.63v13.236h-4.19l-.393-2.476h-.143a10.403 10.403 0 01-6.761 3.023 6.178 6.178 0 01-6.452-6.534zm12.82 0V65.42c-5.951.75-7.88 2.38-7.88 4.583 0 1.976 1.31 2.833 3.143 2.833 1.833 0 3.118-.905 4.737-2.429v-.011zM540.953 54.1h5.107v8.523h8.689v-8.522h5.119v22.283h-5.119v-9.166h-8.689v9.166h-5.107V54.1zm24.807-6.856a3.182 3.182 0 011.8-3.093 3.177 3.177 0 014.47 2.166 3.179 3.179 0 01-3.104 3.88 2.949 2.949 0 01-2.923-1.771 2.963 2.963 0 01-.243-1.182zm.595 6.856h5.142v22.284h-5.106l-.036-22.284zm16.88 11.523l4.214 1.464-5.952 9.297h-5.726l7.464-10.761zm6.654 2.75h-3.214c-4.321 0-9.047-2.024-9.047-7.273 0-5.25 3.869-7 8.833-7h8.534v22.284h-5.106v-8.011zm0-3.571v-6.797h-2.714c-2.857 0-4.476 1.024-4.476 3.238s1.619 3.5 4.476 3.5l2.714.059z"/></svg>
